X: 0961
M: 4/4
L: 1/8
K: D
|:\
d>Ad>A dAFD | A2A>A A2z2 |\
a3f d2d>f | e2e>g fefg |\
a3g fdgf | e2e>e e2 :|
|:\
geee fddd | bagf f2e2 |\
d3f/e/ dAB=c | cBBB B2c/d/e/f/ |
g2f2 e2d2 | c2e>e e2z2 |\
faaf gedc | d2d>d d2z2 H:|
[K:A] |:\
c3e dcdB | c2e2 c2e2 |\
e3a a3e | f3g bagf |\
e2ae eddc | (c4 B2)z2 :|
|:\
f3g bagf | e2a2 a2c'2 | b2a2 b2g2 | a3a>a a2"^da Capo"z2 :|

